assets/img/eye.svg

<svg width="55" height="55" viewBox="0 0 55 55" fill="none" xmlns="http://www.w3.org/2000/svg">
<path d="M27.5 14.8958C31.7138 14.8818 35.846 16.0572 39.4215 18.2869C42.9971 20.5165 45.8709 23.71 47.7125 27.5C43.9312 35.2229 36.2083 40.1042 27.5 40.1042C18.7917 40.1042 11.0687 35.2229 7.28749 27.5C9.12911 23.71 12.0029 20.5165 15.5785 18.2869C19.154 16.0572 23.2862 14.8818 27.5 14.8958ZM27.5 10.3125C16.0417 10.3125 6.25624 17.4396 2.29166 27.5C6.25624 37.5604 16.0417 44.6875 27.5 44.6875C38.9583 44.6875 48.7437 37.5604 52.7083 27.5C48.7437 17.4396 38.9583 10.3125 27.5 10.3125ZM27.5 21.7708C29.0195 21.7708 30.4767 22.3744 31.5511 23.4489C32.6256 24.5233 33.2292 25.9805 33.2292 27.5C33.2292 29.0195 32.6256 30.4767 31.5511 31.5511C30.4767 32.6256 29.0195 33.2292 27.5 33.2292C25.9805 33.2292 24.5233 32.6256 23.4489 31.5511C22.3744 30.4767 21.7708 29.0195 21.7708 27.5C21.7708 25.9805 22.3744 24.5233 23.4489 23.4489C24.5233 22.3744 25.9805 21.7708 27.5 21.7708ZM27.5 17.1875C21.8167 17.1875 17.1875 21.8167 17.1875 27.5C17.1875 33.1833 21.8167 37.8125 27.5 37.8125C33.1833 37.8125 37.8125 33.1833 37.8125 27.5C37.8125 21.8167 33.1833 17.1875 27.5 17.1875Z" fill="#0074E8"/>
</svg>

<svg width="55" height="55" fill="none" xmlns="http://www.w3.org/2000/svg"><path d="M27.5 14.896A22.389 22.389 0 0 1 47.712 27.5c-3.78 7.723-11.504 12.604-20.212 12.604S11.069 35.223 7.287 27.5A22.39 22.39 0 0 1 27.5 14.896Zm0-4.584c-11.458 0-21.244 7.128-25.208 17.188C6.256 37.56 16.042 44.688 27.5 44.688c11.458 0 21.244-7.128 25.208-17.188-3.964-10.06-13.75-17.188-25.208-17.188Zm0 11.459a5.729 5.729 0 1 1 0 11.457 5.729 5.729 0 0 1 0-11.457Zm0-4.584c-5.683 0-10.313 4.63-10.313 10.313 0 5.683 4.63 10.313 10.313 10.313 5.683 0 10.313-4.63 10.313-10.313 0-5.683-4.63-10.313-10.313-10.313Z" fill="#0074E8"/></svg>
